!!!COM: Anonim
!!!CDT: [?]
!!!OTL@@LAT: Narrant vaticinia christum
!!!TXO: Latin
!!!ODT: 
!!!GTL: Hymnbook A
!!!ARL: Opactwo św. Wojciecha, Staniątki 
!!!voices:	1
**kern
*staff1
*I"[Canto]
*oclefC1
*clefG2
*k[b-]
!*met(c|)
*M2/1
=-
!LO:TX:Y=0:t=p. 22v
1f
2f
1a
2b-
1cc
=-
2dd
1cc
1g
2g
1cc
=-
2b-
1a
1g
1dd
2a
=-
1b-
!LO:TX:Y=0:t=p. 23r
2g
1f
2d
1c
=-
1cc
2a
1b-
2g
1f
=-
2d
1c
1e
2f
2.g
4g
=-
4f
2g
1f
2e
0f
==
*-
!!title: @{OTL}, @{GTL}: @{pag}, ed. @{ENC}
!!!pag: pp. 22v-23r
!!!GTL: Hymnbook A
!!!EFL: 
!!!YEM: Creative Commons CC/BY/NC/SA 4.0
!!!ENC: Marcin Konik
!!!END: 2015-03-17
!!!EED: Marcin Konik
!!!EEV: 
!!!ONB: Encoded in vim by Marcin Konik
!!!CharacterEncoding: utf-8
!!!RDF**kern: l=long note in original notation
!!!RDF**kern: i=editorial accidental
!!muse2ps: z14jc180F
